jsapp/svg-icons/public-collection.svg

<?xml version="1.0" encoding="UTF-8"?>
<svg width="40px" height="40px" viewBox="0 0 40 40" version="1.1" xmlns="http://www.w3.org/2000/svg" xmlns:xlink="http://www.w3.org/1999/xlink">
    <!-- Generator: Sketch 50.2 (55047) - http://www.bohemiancoding.com/sketch -->
    <title>Icons/public-collection</title>
    <desc>Created with Sketch.</desc>
    <defs>
        <path d="M15,13.765 L15,16 L13.083,16 C13.581,15.142 14.231,14.384 15,13.765 L15,13.765 Z M15,22 L12.263,22 C12.098,21.36 12,20.692 12,20 C12,19.309 12.098,18.641 12.263,18 L15,18 L15,22 Z M15,26.236 C14.231,25.618 13.581,24.859 13.083,24 L15,24 L15,26.236 Z M10,20 C10,25.515 14.486,30 20,30 L20,28 C18.939,28 17.927,27.788 17,27.411 L17,24 L20,24 L20,22 L17,22 L17,18 L20,18 L20,16 L17,16 L17,12.589 C17.927,12.212 18.939,12 20,12 L20,10 C14.486,10 10,14.486 10,20 L10,20 Z M26,14.0004 C25.449,14.0004 25,13.5514 25,13.0004 C25,12.4494 25.449,12.0004 26,12.0004 C26.551,12.0004 27,12.4494 27,13.0004 C27,13.5514 26.551,14.0004 26,14.0004 M29,13.0004 C29,11.3464 27.654,10.0004 26,10.0004 C24.346,10.0004 23,11.3464 23,13.0004 C23,14.6544 24.346,16.0004 26,16.0004 C27.654,16.0004 29,14.6544 29,13.0004 M29,23.0004 L28,23.0004 C27.448,23.0004 27,23.4484 27,24.0004 L27,28.0004 L25,28.0004 L25,24.0004 C25,23.4484 24.552,23.0004 24,23.0004 L23,23.0004 L23,21.0004 C23,19.3464 24.346,18.0004 26,18.0004 C27.654,18.0004 29,19.3464 29,21.0004 L29,23.0004 Z M26,16.0004 C23.243,16.0004 21,18.2434 21,21.0004 L21,24.0004 C21,24.5524 21.448,25.0004 22,25.0004 L23,25.0004 L23,29.0004 C23,29.5524 23.448,30.0004 24,30.0004 L28,30.0004 C28.552,30.0004 29,29.5524 29,29.0004 L29,25.0004 L30,25.0004 C30.552,25.0004 31,24.5524 31,24.0004 L31,21.0004 C31,18.2434 28.757,16.0004 26,16.0004 L26,16.0004 Z" id="path-1"></path>
    </defs>
    <g id="Icons/public-collection" stroke="none" stroke-width="1" fill="none" fill-rule="evenodd">
        <mask id="mask-2" fill="white">
            <use xlink:href="#path-1"></use>
        </mask>
        <use id="Mask" fill="#000000" xlink:href="#path-1"></use>
    </g>
</svg>

<svg height="40" viewBox="0 0 40 40" width="40" xmlns="http://www.w3.org/2000/svg"><path d="m15 13.765v2.235h-1.917c.498-.858 1.148-1.616 1.917-2.235zm0 8.235h-2.737c-.165-.64-.263-1.308-.263-2 0-.691.098-1.359.263-2h2.737zm0 4.236c-.769-.618-1.419-1.377-1.917-2.236h1.917zm-5-6.236c0 5.515 4.486 10 10 10v-2c-1.061 0-2.073-.212-3-.589v-3.411h3v-2h-3v-4h3v-2h-3v-3.411c.927-.377 1.939-.589 3-.589v-2c-5.514 0-10 4.486-10 10zm16-5.9996c-.551 0-1-.449-1-1s.449-1 1-1 1 .449 1 1-.449 1-1 1m3-1c0-1.654-1.346-3-3-3s-3 1.346-3 3 1.346 3 3 3 3-1.346 3-3m0 10h-1c-.552 0-1 .448-1 1v4h-2v-4c0-.552-.448-1-1-1h-1v-2c0-1.654 1.346-3 3-3s3 1.346 3 3zm-3-7c-2.757 0-5 2.243-5 5v3c0 .552.448 1 1 1h1v4c0 .552.448 1 1 1h4c.552 0 1-.448 1-1v-4h1c.552 0 1-.448 1-1v-3c0-2.757-2.243-5-5-5z" fill-rule="evenodd"/></svg>
